(Generated by PartKam Version 0.05)

G21 G90 G40

(single cut)
G0 Z15
T0 M6
G17
M3
G0 X-1.5875634517766497 Y0
G1 Z-1.5 F1200
G1 X-1.5862944162436547 Y-35.276649746192895 F2473
G3 X0 Y-36.86548223350254 I1.5862944162436547 J0
G1 X35.276649746192895 Y-36.86548223350254
G3 X36.86548223350254 Y-35.276649746192895 I0 J1.5862944162436547
G1 X36.86548223350254 Y0
G3 X35.276649746192895 Y1.5862944162436547 I-1.5862944162436547 J0
G1 X0 Y1.5862944162436547
G3 X-1.5862944162436547 Y0 I0 J-1.5862944162436547
G1 Z-3 F1200
G1 X-1.5862944162436547 Y-35.276649746192895 F2473
G3 X0 Y-36.86548223350254 I1.5862944162436547 J0
G1 X35.276649746192895 Y-36.86548223350254
G3 X36.86548223350254 Y-35.276649746192895 I0 J1.5862944162436547
G1 X36.86548223350254 Y0
G3 X35.276649746192895 Y1.5862944162436547 I-1.5862944162436547 J0
G1 X0 Y1.5862944162436547
G3 X-1.5862944162436547 Y0 I0 J-1.5862944162436547
G1 Z-4.5 F1200
G1 X-1.5862944162436547 Y-35.276649746192895 F2473
G3 X0 Y-36.86548223350254 I1.5862944162436547 J0
G1 X35.276649746192895 Y-36.86548223350254
G3 X36.86548223350254 Y-35.276649746192895 I0 J1.5862944162436547
G1 X36.86548223350254 Y0
G3 X35.276649746192895 Y1.5862944162436547 I-1.5862944162436547 J0
G1 X0 Y1.5862944162436547
G3 X-1.5862944162436547 Y0 I0 J-1.5862944162436547
G1 Z-5 F1200
G1 X-1.5862944162436547 Y-35.276649746192895 F2473
G3 X0 Y-36.86548223350254 I1.5862944162436547 J0
G1 X35.276649746192895 Y-36.86548223350254
G3 X36.86548223350254 Y-35.276649746192895 I0 J1.5862944162436547
G1 X36.86548223350254 Y0
G3 X35.276649746192895 Y1.5862944162436547 I-1.5862944162436547 J0
G1 X0 Y1.5862944162436547
G3 X-1.5862944162436547 Y0 I0 J-1.5862944162436547
G0 Z15
M5
M30
